lib/svgs/upload-file.svg

<?xml version="1.0" encoding="UTF-8"?>
<svg width="16px" height="16px" viewBox="0 0 16 16" version="1.1" xmlns="http://www.w3.org/2000/svg" xmlns:xlink="http://www.w3.org/1999/xlink">
    <!-- Generator: sketchtool 51.3 (57544) - http://www.bohemiancoding.com/sketch -->
    <title>file/upload-file</title>
    <desc>Created with sketchtool.</desc>
    <defs></defs>
    <g id="Icons" stroke="none" stroke-width="1" fill="none" fill-rule="evenodd">
        <g id="Web" transform="translate(-291.000000, -1566.000000)" fill="#000000">
            <g id="file/upload-file" transform="translate(291.000000, 1566.000000)">
                <path d="M14.331,5.307 L9.493,0.469 C9.193,0.169 8.786,0 8.361,0 L3.6,0 C2.72,0 2,0.72 2,1.6 L2,14.4 C2,15.28 2.72,16 3.6,16 L13.2,16 C14.08,16 14.8,15.28 14.8,14.4 L14.8,6.439 C14.8,6.014 14.631,5.607 14.331,5.307 M13.2,14.8 L3.6,14.8 C3.383,14.8 3.2,14.617 3.2,14.4 L3.2,1.6 C3.2,1.383 3.383,1.2 3.6,1.2 L8.001,1.2 L8.001,5.083 C8.001,6 8.751,6.75 9.668,6.75 L13.6,6.75 L13.6,14.4 C13.6,14.617 13.417,14.8 13.2,14.8 M9.201,1.874 L12.877,5.55 L9.668,5.55 C9.415,5.55 9.201,5.336 9.201,5.083 L9.201,1.874 M6.83375,10.6742 L7.79975,9.7072 L7.79975,13.2582 C7.79975,13.5902 8.06875,13.8592 8.39975,13.8592 C8.73175,13.8592 9.00075,13.5902 9.00075,13.2582 L9.00075,9.7072 L9.96675,10.6742 C10.20075,10.9082 10.58075,10.9082 10.81475,10.6742 C11.04975,10.4402 11.04975,10.0602 10.81475,9.8262 L8.82475,7.8352 C8.71175,7.7212 8.55975,7.6592 8.39975,7.6592 C8.24075,7.6592 8.08775,7.7212 7.97575,7.8352 L5.98475,9.8262 C5.75075,10.0602 5.75075,10.4402 5.98475,10.6742 C6.21875,10.9082 6.59875,10.9082 6.83375,10.6742" id="Shape"></path>
            </g>
        </g>
    </g>
</svg>

<svg xmlns="http://www.w3.org/2000/svg" viewBox="0 0 16 16">
    <path d="M14.331 5.307L9.493.469A1.6 1.6 0 0 0 8.361 0H3.6C2.72 0 2 .72 2 1.6v12.8c0 .88.72 1.6 1.6 1.6h9.6c.88 0 1.6-.72 1.6-1.6V6.439a1.6 1.6 0 0 0-.469-1.132M13.2 14.8H3.6a.405.405 0 0 1-.4-.4V1.6c0-.217.183-.4.4-.4h4.401v3.883c0 .917.75 1.667 1.667 1.667H13.6v7.65c0 .217-.183.4-.4.4M9.201 1.874l3.676 3.676H9.668a.473.473 0 0 1-.467-.467V1.874m-2.367 8.8l.966-.967v3.551a.6.6 0 1 0 1.2 0v-3.55l.967.966a.6.6 0 0 0 .848-.848l-1.99-1.99a.595.595 0 0 0-.85 0l-1.99 1.99a.6.6 0 1 0 .849.848"/>
</svg>
